src/topics/icons/blogger.svg

<svg height="256" preserveAspectRatio="xMidYMid" viewBox="0 0 256 256" width="256" xmlns="http://www.w3.org/2000/svg" xmlns:xlink="http://www.w3.org/1999/xlink"><linearGradient id="a" x1="10.231872%" x2="25.642465%" y1="-19.753012%" y2="31.75006%"><stop offset="0" stop-color="#fff"/><stop offset="1" stop-color="#fff" stop-opacity="0"/></linearGradient><rect fill="#f57d00" height="254.903919" rx="35.487503" transform="matrix(-1 0 0 1 255.999892 0)" width="254.923759" x=".538066" y=".548024"/><path d="m188.110807 11.4453478h-120.2217656c-31.8230563 0-57.4423322 25.8275146-57.4423322 57.9092285v117.2906957c1.0300745 25.042495 4.9923145 9.211162 12.5342589-18.521719 8.7653533-32.231214 37.311436-60.401758 72.0755092-81.5139801 26.5343237-16.1141695 56.2344027-26.4040678 110.2964607-27.3829641 30.660144-.5551295 27.953356-39.7916312-17.242131-47.781261z" fill="url(#a)"/><g stroke="#fff" stroke-width="30"><path d="m98.3283851 70.0696732 36.9924559-.5690251c16.93965.4682522 26.354115 12.4757261 26.179286 26.1751214 1.642056 16.1878675-2.91623 34.5181075-28.455745 34.1414505h-36.4233434c-16.0594657.155293-28.8826467-9.282104-27.8866223-27.882185-.7956394-15.4098228 4.2927295-32.0875611 29.5939688-31.8653618z" fill="#fff"/><path d="m158.085435 195.255007h-56.91148c-23.7145272.304261-35.1375726-10.507129-33.5777733-35.279501.1120542-22.268311 13.0287837-28.62657 32.4395503-29.020235h56.342345c38.310194-1.022677 34.125994-1.393487 34.716008 29.58925-.240835 22.524702-12.628675 34.538099-33.00865 34.710486z" fill="#fff"/><path d="m67.5961925 164.527696 1.1382238-68.2829123"/></g><path d="m101.033806 99.3208949 31.773093.504461" stroke="#f57d00" stroke-width="25"/><path d="m97.4243471 161.456575h63.5461859" stroke="#f57d00" stroke-width="25"/></svg>

<?xml version="1.0" encoding="UTF-8" standalone="no"?>
<svg width="256px" height="256px" viewBox="0 0 256 256" version="1.1" xmlns="http://www.w3.org/2000/svg" xmlns:xlink="http://www.w3.org/1999/xlink" preserveAspectRatio="xMidYMid">
    <defs>
        <linearGradient x1="10.2318718%" y1="-19.7530118%" x2="25.6424654%" y2="31.7500597%" id="linearGradient-1">
            <stop stop-color="#FFFFFF" offset="0%"></stop>
            <stop stop-color="#FFFFFF" stop-opacity="0" offset="100%"></stop>
        </linearGradient>
    </defs>
	<g>
		<rect fill="#F57D00" transform="translate(127.999946, 127.999984) scale(-1, 1) translate(-127.999946, -127.999984) " x="0.538066441" y="0.548024407" width="254.923759" height="254.903919" rx="35.487503"></rect>
		<path d="M188.110807,11.4453478 L67.8890414,11.4453478 C36.0659851,11.4453478 10.4467092,37.2728624 10.4467092,69.3545763 L10.4467092,186.645272 C11.4767837,211.687767 15.4390237,195.856434 22.9809681,168.123553 C31.7463214,135.892339 60.2924041,107.721795 95.0564773,86.6095729 C121.590801,70.4954034 151.29088,60.2055051 205.352938,59.2266088 C236.013082,58.6714793 233.306294,19.4349776 188.110807,11.4453478 L188.110807,11.4453478 Z" fill="url(#linearGradient-1)"></path>
		<path d="M98.3283851,70.0696732 L135.320841,69.5006481 C152.260491,69.9689003 161.674956,81.9763742 161.500127,95.6757695 C163.142183,111.863637 158.583897,130.193877 133.044382,129.81722 L96.6210386,129.81722 C80.5615729,129.972513 67.7383919,120.535116 68.7344163,101.935035 C67.9387769,86.5252122 73.0271458,69.8474739 98.3283851,70.0696732 L98.3283851,70.0696732 Z" stroke="#FFFFFF" stroke-width="30" fill="#FFFFFF"></path>
		<path d="M158.085435,195.255007 L101.173955,195.255007 C77.4594278,195.559268 66.0363824,184.747878 67.5961817,159.975506 C67.7082359,137.707195 80.6249654,131.348936 100.035732,130.955271 L156.378077,130.955271 C194.688271,129.932594 190.504071,129.561784 191.094085,160.544521 C190.85325,183.069223 178.46541,195.08262 158.085435,195.255007 L158.085435,195.255007 Z" stroke="#FFFFFF" stroke-width="30" fill="#FFFFFF"></path>
		<path d="M67.5961925,164.527696 L68.7344163,96.2447837" stroke="#FFFFFF" stroke-width="30"></path>
		<path d="M101.033806,99.3208949 L132.806899,99.8253559" stroke="#F57D00" stroke-width="25"></path>
		<path d="M97.4243471,161.456575 L160.970533,161.456575" stroke="#F57D00" stroke-width="25"></path>
	</g>
</svg>
